X:690
T:Braes of Auchentyre Reel
M:2/4
L:1/16
Z:abc by Bruce Osborne - bosborne@kos.net
K:C
(3CCC C2 EGG2|cded cAAG|(3AAA AG A2a2|gecd edd2|!
(3CCC C2 EGG2|cded cAAG|(3ABcGc FdEc|edcB c2z2:|!
|:g3a gedc|fedc eccG|(3AAA AG A2a2|gecd edd2|!
egga gedc|fedc eccG|(3ABcGc FdEc|edcB c2z2:|!
